assets/Icon Slim.svg

<svg xmlns="http://www.w3.org/2000/svg" fill="none" viewBox="0 0 512 512">
    <path fill="#359DC4" stroke="#000" stroke-width="12.6031"
          d="M204.123 383.171h254.991c1.111 0 2.164.203 3.275.797 1.162.622 2.112 1.572 2.734 2.734.594 1.111.797 2.164.797 3.275v104.258H197.317V389.977c0-1.111.203-2.164.797-3.275.622-1.162 1.572-2.112 2.734-2.734 1.111-.594 2.164-.797 3.275-.797Zm84.173-33.526h-51.2c-.218 0-.394.176-.394.394v31.508c0 .217.176.394.394.394h51.2c.217 0 .393-.177.393-.394v-31.508c0-.218-.176-.394-.393-.394Zm137.845 0h-51.2c-.217 0-.393.176-.393.394v31.508c0 .217.176.394.393.394h51.2c.218 0 .394-.177.394-.394v-31.508c0-.218-.176-.394-.394-.394Z"/>
    <path fill="#D56FAC" stroke="#000" stroke-width="12.6031"
          d="M124.062 349.645H72.8616c-.2175 0-.3938.176-.3938.394v31.508c0 .217.1763.394.3938.394h51.2004c.217 0 .393-.177.393-.394v-31.508c0-.218-.176-.394-.393-.394Zm-89.2924 33.526H161.76c1.111 0 2.164.203 3.275.797 1.162.622 2.112 1.572 2.734 2.734.594 1.111.797 2.164.797 3.275v104.258H27.9631V389.977c0-1.111.2034-2.164.7974-3.275.6216-1.162 1.5715-2.112 2.7339-2.734 1.1106-.594 2.1638-.797 3.2752-.797Z"/>
    <path fill="#967ADC" stroke="#000" stroke-width="12.6031"
          d="M34.7696 220.906H289.76c1.111 0 2.164.203 3.275.797 1.162.622 2.112 1.572 2.734 2.734.594 1.111.797 2.164.797 3.275v104.259H27.9631V227.712c0-1.111.2034-2.164.7974-3.275.6216-1.162 1.5715-2.112 2.7339-2.734 1.1106-.594 2.1638-.797 3.2752-.797Zm84.1724-33.477H67.7415c-.2175 0-.3938.177-.3938.394v31.508c0 .217.1763.394.3938.394h51.2005c.217 0 .393-.177.393-.394v-31.508c0-.217-.176-.394-.393-.394Zm137.846 0h-51.2c-.218 0-.394.177-.394.394v31.508c0 .217.176.394.394.394h51.2c.217 0 .394-.177.394-.394v-31.508c0-.217-.177-.394-.394-.394Z"/>
    <path fill="#4FC0E9" stroke="#000" stroke-width="12.6031"
          d="M257.696 29.4309 477.64 155.731c.959.55 1.764 1.25 2.42 2.322.687 1.121 1.023 2.425.968 3.752-.052 1.269-.412 2.294-.977 3.269l-53.003 91.472-231.686-133.043 53.003-91.4717c.565-.975 1.276-1.7983 2.353-2.4786 1.127-.7119 2.429-1.0748 3.747-1.0444 1.26.029 2.272.3722 3.231.9226Z"/>
    <path fill="#4FC0E9" stroke="#000" stroke-width="12.6031"
          d="m346.02 42.9899-44.098-25.3027c-.187-.1075-.428-.0403-.539.1501l-15.994 27.5809c-.11.1904-.048.4319.139.5394l44.098 25.3028c.187.1075.429.0403.539-.1502l15.994-27.5809c.111-.1904.049-.4319-.139-.5394Zm119.379 68.9231-44.098-25.3027c-.187-.1075-.429-.0403-.539.1501l-15.995 27.5806c-.11.191-.048.432.14.54l44.097 25.302c.188.108.429.041.54-.15l15.994-27.581c.11-.19.048-.431-.139-.539Z"/>
</svg>

<svg width="512" height="512" viewBox="0 0 512 512" fill="none" xmlns="http://www.w3.org/2000/svg">
<path d="M204.123 383.171H459.114C460.225 383.171 461.278 383.374 462.389 383.968C463.551 384.59 464.501 385.54 465.123 386.702C465.717 387.813 465.92 388.866 465.92 389.977V494.235H197.317V389.977C197.317 388.866 197.52 387.813 198.114 386.702C198.736 385.54 199.686 384.59 200.848 383.968C201.959 383.374 203.012 383.171 204.123 383.171Z" fill="#359DC4" stroke="black" stroke-width="12.6031"/>
<path d="M288.296 349.645H237.096C236.878 349.645 236.702 349.821 236.702 350.039V381.547C236.702 381.764 236.878 381.941 237.096 381.941H288.296C288.513 381.941 288.689 381.764 288.689 381.547V350.039C288.689 349.821 288.513 349.645 288.296 349.645Z" fill="#359DC4" stroke="black" stroke-width="12.6031"/>
<path d="M426.141 349.645H374.941C374.724 349.645 374.548 349.821 374.548 350.039V381.547C374.548 381.764 374.724 381.941 374.941 381.941H426.141C426.359 381.941 426.535 381.764 426.535 381.547V350.039C426.535 349.821 426.359 349.645 426.141 349.645Z" fill="#359DC4" stroke="black" stroke-width="12.6031"/>
<path d="M124.062 349.645H72.8616C72.6441 349.645 72.4678 349.821 72.4678 350.039V381.547C72.4678 381.764 72.6441 381.941 72.8616 381.941H124.062C124.279 381.941 124.455 381.764 124.455 381.547V350.039C124.455 349.821 124.279 349.645 124.062 349.645Z" fill="#D56FAC" stroke="black" stroke-width="12.6031"/>
<path d="M34.7696 383.171H161.76C162.871 383.171 163.924 383.374 165.035 383.968C166.197 384.59 167.147 385.54 167.769 386.702C168.363 387.813 168.566 388.866 168.566 389.977V494.235H27.9631V389.977C27.9631 388.866 28.1665 387.813 28.7605 386.702C29.3821 385.54 30.332 384.59 31.4944 383.968C32.605 383.374 33.6582 383.171 34.7696 383.171Z" fill="#D56FAC" stroke="black" stroke-width="12.6031"/>
<path d="M34.7696 220.906H289.76C290.871 220.906 291.924 221.109 293.035 221.703C294.197 222.325 295.147 223.275 295.769 224.437C296.363 225.548 296.566 226.601 296.566 227.712V331.971H27.9631V227.712C27.9631 226.601 28.1665 225.548 28.7605 224.437C29.3821 223.275 30.332 222.325 31.4944 221.703C32.605 221.109 33.6582 220.906 34.7696 220.906Z" fill="#967ADC" stroke="black" stroke-width="12.6031"/>
<path d="M118.942 187.429H67.7415C67.524 187.429 67.3477 187.606 67.3477 187.823V219.331C67.3477 219.548 67.524 219.725 67.7415 219.725H118.942C119.159 219.725 119.335 219.548 119.335 219.331V187.823C119.335 187.606 119.159 187.429 118.942 187.429Z" fill="#967ADC" stroke="black" stroke-width="12.6031"/>
<path d="M256.788 187.429H205.588C205.37 187.429 205.194 187.606 205.194 187.823V219.331C205.194 219.548 205.37 219.725 205.588 219.725H256.788C257.005 219.725 257.182 219.548 257.182 219.331V187.823C257.182 187.606 257.005 187.429 256.788 187.429Z" fill="#967ADC" stroke="black" stroke-width="12.6031"/>
<path d="M257.696 29.4309L477.64 155.731C478.599 156.281 479.404 156.981 480.06 158.053C480.747 159.174 481.083 160.478 481.028 161.805C480.976 163.074 480.616 164.099 480.051 165.074L427.048 256.546L195.362 123.503L248.365 32.0313C248.93 31.0563 249.641 30.233 250.718 29.5527C251.845 28.8408 253.147 28.4779 254.465 28.5083C255.725 28.5373 256.737 28.8805 257.696 29.4309Z" fill="#4FC0E9" stroke="black" stroke-width="12.6031"/>
<path d="M346.02 42.9899L301.922 17.6872C301.735 17.5797 301.494 17.6469 301.383 17.8373L285.389 45.4182C285.279 45.6086 285.341 45.8501 285.528 45.9576L329.626 71.2604C329.813 71.3679 330.055 71.3007 330.165 71.1102L346.159 43.5293C346.27 43.3389 346.208 43.0974 346.02 42.9899Z" fill="#4FC0E9" stroke="black" stroke-width="12.6031"/>
<path d="M465.399 111.913L421.301 86.6103C421.114 86.5028 420.872 86.57 420.762 86.7604L404.767 114.341C404.657 114.532 404.719 114.773 404.907 114.881L449.004 140.183C449.192 140.291 449.433 140.224 449.544 140.033L465.538 112.452C465.648 112.262 465.586 112.021 465.399 111.913Z" fill="#4FC0E9" stroke="black" stroke-width="12.6031"/>
</svg>
